docs/.gitbook/assets/icon-tree-16@dark.svg

<svg width="32" height="32" viewBox="0 0 16 16" fill="none" xmlns="http://www.w3.org/2000/svg">
<rect x="0" y="0" width="16" height="16" fill="#181c1f"/>
<path fill-rule="evenodd" clip-rule="evenodd" d="M8 1C8.25314 1 8.4892 1.12769 8.62773 1.33956L12.8777 7.83956C13.0284 8.07006 13.0407 8.36461 12.9097 8.60684C12.7786 8.84907 12.5254 9 12.25 9H12.1032L13.886 11.8525C14.0305 12.0837 14.0382 12.3751 13.906 12.6136C13.7738 12.852 13.5226 13 13.25 13H8.75L8.75 14.25C8.75 14.6642 8.41421 15 8 15C7.58579 15 7.25 14.6642 7.25 14.25L7.25 13H2.75C2.47736 13 2.22619 12.852 2.09402 12.6136C1.96185 12.3751 1.9695 12.0837 2.114 11.8525L3.89682 9H3.75C3.47461 9 3.22136 8.84907 3.09033 8.60684C2.9593 8.36462 2.97156 8.07006 3.12227 7.83956L7.37227 1.33956C7.5108 1.12769 7.74686 1 8 1ZM5.13648 7.5H5.25C5.52264 7.5 5.77381 7.64796 5.90598 7.88642C6.03815 8.12489 6.0305 8.4163 5.886 8.6475L4.10319 11.5H8H11.8968L10.114 8.6475C9.9695 8.4163 9.96185 8.12489 10.094 7.88642C10.2262 7.64796 10.4774 7.5 10.75 7.5H10.8635L8 3.12049L5.13648 7.5Z" fill="#fff"/>
</svg>

<svg xmlns="http://www.w3.org/2000/svg" width="32" height="32" fill="none" viewBox="0 0 16 16"><path fill="#181c1f" d="M0 0h16v16H0z"/><path fill="#fff" fill-rule="evenodd" d="M8 1a.75.75 0 0 1 .628.34l4.25 6.5A.75.75 0 0 1 12.25 9h-.147l1.783 2.852A.75.75 0 0 1 13.25 13h-4.5v1.25a.75.75 0 0 1-1.5 0V13h-4.5a.75.75 0 0 1-.636-1.148L3.897 9H3.75a.75.75 0 0 1-.628-1.16l4.25-6.5A.75.75 0 0 1 8 1M5.136 7.5h.114a.75.75 0 0 1 .636 1.148L4.103 11.5h7.794l-1.783-2.852A.75.75 0 0 1 10.75 7.5h.114L8 3.12z" clip-rule="evenodd"/></svg>
